X:1
T: Aandowin at the Bow
C:
R:Reel
I:speed 232
Q:232
K:G
M:4/4
L:1/8
|:A|BG AG E2 D2|BG AG BG Ad|BG AG E2 DE|GA BA G3A|
BG AG E2 D2|BG AG BG Ad|BG AG E2 DE|GA BA G3g|
eg dB AG E2|eg dg eg dg|eg dB AG Ee|gg gg af g2|
eg dg eg dg|eg dB AG ED|GA BG E2 DE|GB AG G3:|
